X:628
T:Anglais efter Jularpa-Sven
T:(SvL Skåne nr. 25)
R:Anglais
B:Svenska Låtar Skåne
Z:Patrik Månsson, 2009-01-15
O:Glimåkra, Skåne
S:efter [[!SvenAkesson|Sven Åkesson]]
M:2/4
L:1/16
K:Eb
|: e4 B4 | g4 e4 | b2bg e2eg | B2cd e4 :]
K:Bb
|: dfbg gfdf | fece edcB | dfbg gfdf | (fe)cA B4 :|
(:musicend:)
(:music:)
